X:207 
T:Tear It to Rags 
S:Grier MS 
F:file ID: cre.4/207tear_it
B:CRE4.067 (StrÃÂÃÂÃÂÃÂ³ic ina Ghiobail E)
L:1/8
M:12/8
Q:160
R:jig
K:D % source key G
G|AFD D2F E2D D2F|AFD D2B cec BdB|
AFD D2F E2D D2B,|C3 DEF G3 F2:|
B|A2d dcd A2d dcd|A2d ded cec BdB|
A2d dcd A2d dcd|efe e2d cec Bd:|

%%%

